other/www.hatom.com/webgl/home/lut/paint_4.3DL
#Created by: Adobe Photoshop Export Color Lookup Plugin
#Description: paint_3.psd
0 171 341 512 682 853 1023
3918 1333 1445
3918 1333 1445
3916 1341 1494
3909 1454 2708
3814 1515 3877
3587 1773 4002
3125 2121 4009
3441 1906 4009
2920 2234 4009
2296 2544 4052
1591 2790 3972
1250 2919 3809
1118 2998 3719
998 3082 3608
1071 3029 3679
958 3114 3563
864 3202 3428
799 3292 3280
768 3380 3117
777 3468 2941
825 3553 2755
792 3499 2876
850 3582 2684
935 3663 2480
1038 3738 2267
1149 3809 2043
1261 3874 1808
1374 3934 1558
1302 3896 1719
1413 3953 1463
1517 4004 1186
1612 4048 873
1697 4085 477
1793 4095 0
1842 4095 0
1825 4095 0
1852 4095 0
1908 4095 0
1989 4095 0
2084 4095 0
2188 4095 0
2297 4095 0
2228 4095 0
2338 4095 10
2442 4095 59
2491 4095 81
2539 4095 98
2586 4095 118
2632 4095 133
3940 1391 2337
3833 1522 3641
3672 1679 3995
3272 2029 4010
2711 2354 4024
2039 2636 4066
1357 2867 3867
1771 2727 4036
1287 2899 3830
1152 2976 3745
1029 3059 3639
920 3146 3516
836 3235 3377
782 3324 3222
812 3267 3323
771 3356 3163
771 3445 2989
809 3530 2805
879 3612 2610
971 3690 2404
1076 3764 2188
1008 3718 2327
1117 3790 2107
1229 3857 1875
1343 3918 1629
1451 3972 1366
1553 4021 1074
1645 4063 740
1588 4037 961
1675 4075 598
1766 4095 0
1834 4095 0
1864 4095 0
1935 4095 0
2022 4095 0
1966 4095 0
2058 4095 0
2160 4095 0
2267 4095 0
2377 4095 29
2460 4095 67
2508 4095 87
2478 4095 74
2526 4095 92
2573 4095 111
2621 4095 129
2665 4095 145
2710 4095 158
2752 4095 172
3400 1939 4010
2868 2265 4013
2231 2569 4056
1529 2811 3947
1236 2926 3802
1104 3005 3709
987 3090 3597
1061 3036 3671
949 3121 3553
855 3211 3415
793 3300 3265
767 3389 3101
781 3476 2924
832 3560 2736
794 3507 2858
857 3590 2666
945 3669 2463
1046 3744 2249
1159 3815 2022
1271 3880 1785
1384 3938 1533
1312 3901 1696
1423 3958 1438
1526 4008 1158
1621 4052 841
1703 4087 429
1801 4095 0
1844 4095 0
1827 4095 0
1854 4095 0
1914 4095 0
1998 4095 0
2093 4095 0
2198 4095 0
2307 4095 0
2239 4095 0
2348 4095 14
2447 4095 61
2496 4095 81
2543 4095 99
2590 4095 117
2637 4095 135
2608 4095 123
2653 4095 140
2698 4095 155
2741 4095 169
2782 4095 181
2822 4095 193
2860 4095 203
1717 2747 4018
1276 2904 3824
1140 2984 3736
1018 3067 3628
911 3154 3504
830 3243 3363
780 3332 3208
809 3275 3308
772 3364 3148
774 3452 2975
813 3537 2790
885 3619 2595
980 3698 2385
1087 3771 2167
1017 3724 2308
1127 3796 2086
1240 3863 1853
1353 3923 1606
1461 3977 1341
1561 4025 1049
1652 4066 711
1596 4041 931
1683 4079 558
1775 4095 0
1837 4095 0
1870 4095 0
1942 4095 0
2031 4095 0
1974 4095 0
2067 4095 0
2170 4095 0
2278 4095 0
2387 4095 34
2465 4095 70
2513 4095 89
2483 4095 77
2530 4095 95
2578 4095 114
2624 4095 129
2670 4095 145
2714 4095 162
2756 4095 173
2729 4095 165
2771 4095 179
2811 4095 189
2850 4095 200
2886 4095 210
2921 4095 220
2953 4095 229
1051 3043 3660
939 3130 3541
851 3218 3404
790 3307 3252
768 3396 3087
783 3484 2908
838 3568 2718
800 3514 2840
863 3597 2647
952 3676 2443
1056 3751 2229
1168 3821 2004
1281 3885 1765
1393 3943 1513
1323 3907 1672
1432 3964 1414
1535 4013 1131
1629 4055 808
1712 4090 380
1810 4095 0
1847 4095 0
1830 4095 0
1856 4095 0
1922 4095 0
2006 4095 0
2103 4095 0
2208 4095 0
2317 4095 0
2248 4095 0
2357 4095 19
2451 4095 62
2500 4095 83
2548 4095 102
2595 4095 118
2641 4095 136
2611 4095 124
2657 4095 142
2701 4095 155
2744 4095 169
2786 4095 182
2826 4095 194
2864 4095 204
2840 4095 198
2877 4095 208
2912 4095 218
2945 4095 228
2976 4095 237
3004 4095 248
3030 4095 254
803 3283 3294
770 3372 3132
776 3460 2959
819 3545 2772
893 3626 2575
988 3703 2368
1096 3777 2149
1027 3732 2287
1138 3802 2064
1250 3868 1830
1363 3928 1581
1471 3982 1315
1570 4029 1020
1661 4069 674
1605 4045 900
1690 4082 515
1785 4095 0
1840 4095 0
1876 4095 0
1951 4095 0
2040 4095 0
1981 4095 0
2075 4095 0
2179 4095 0
2288 4095 0
2398 4095 38
2469 4095 69
2518 4095 89
2487 4095 78
2535 4095 95
2582 4095 115
2628 4095 132
2673 4095 147
2717 4095 161
2760 4095 175
2732 4095 168
2775 4095 179
2815 4095 190
2853 4095 201
2889 4095 211
2923 4095 221
2956 4095 230
2936 4095 225
2967 4095 233
2997 4095 244
3023 4095 251
3047 4095 262
3068 4095 271
3086 4095 282
803 3522 2823
872 3605 2629
962 3684 2424
1066 3758 2208
1178 3827 1982
1291 3891 1742
1403 3948 1488
1333 3913 1650
1442 3968 1388
1544 4017 1103
1637 4059 774
1718 4093 323
1819 4095 0
1849 4095 0
1832 4095 0
1859 4095 0
1929 4095 0
2014 4095 0
2113 4095 0
2218 4095 0
2327 4095 5
2257 4095 0
2367 4095 25
2455 4095 65
2504 4095 84
2552 4095 103
2599 4095 119
2645 4095 139
2616 4095 127
2661 4095 140
2706 4095 157
2748 4095 169
2789 4095 183
2828 4095 195
2866 4095 203
2843 4095 197
2880 4095 209
2915 4095 219
2948 4095 230
2978 4095 237
3006 4095 247
3032 4095 256
3016 4095 250
3041 4095 260
3063 4095 269
3082 4095 280
3099 4095 290
3100 4095 290
3100 4095 290
