other/www.hatom.com/webgl/home/lut/paint_1.3DL
#Created by: Adobe Photoshop Export Color Lookup Plugin
#Description: Capture d’écran 2024-07-03 à 09.23.58.png
0 171 341 512 682 853 1023
0 0 0
0 0 1081
0 0 2185
0 0 3071
0 0 3614
0 0 3927
0 0 4095
0 671 0
0 671 1081
0 671 2185
0 671 3071
0 671 3614
0 671 3927
0 671 4095
0 1460 0
0 1460 1081
0 1460 2185
0 1460 3071
0 1460 3614
0 1460 3927
0 1460 4095
0 2355 0
0 2355 1081
0 2355 2185
0 2355 3071
0 2355 3614
0 2355 3927
0 2355 4095
0 3159 0
0 3159 1081
0 3159 2185
0 3159 3071
0 3159 3614
0 3159 3927
0 3159 4095
0 3750 0
0 3750 1081
0 3750 2185
0 3750 3071
0 3750 3614
0 3750 3927
0 3750 4095
0 4095 0
0 4095 1081
0 4095 2185
0 4095 3071
0 4095 3614
0 4095 3927
0 4095 4095
699 0 0
699 0 1081
699 0 2185
699 0 3071
699 0 3614
699 0 3927
699 0 4095
699 671 0
699 671 1081
699 671 2185
699 671 3071
699 671 3614
699 671 3927
699 671 4095
699 1460 0
699 1460 1081
699 1460 2185
699 1460 3071
699 1460 3614
699 1460 3927
699 1460 4095
699 2355 0
699 2355 1081
699 2355 2185
699 2355 3071
699 2355 3614
699 2355 3927
699 2355 4095
699 3159 0
699 3159 1081
699 3159 2185
699 3159 3071
699 3159 3614
699 3159 3927
699 3159 4095
699 3750 0
699 3750 1081
699 3750 2185
699 3750 3071
699 3750 3614
699 3750 3927
699 3750 4095
699 4095 0
699 4095 1081
699 4095 2185
699 4095 3071
699 4095 3614
699 4095 3927
699 4095 4095
1544 0 0
1544 0 1081
1544 0 2185
1544 0 3071
1544 0 3614
1544 0 3927
1544 0 4095
1544 671 0
1544 671 1081
1544 671 2185
1544 671 3071
1544 671 3614
1544 671 3927
1544 671 4095
1544 1460 0
1544 1460 1081
1544 1460 2185
1544 1460 3071
1544 1460 3614
1544 1460 3927
1544 1460 4095
1544 2355 0
1544 2355 1081
1544 2355 2185
1544 2355 3071
1544 2355 3614
1544 2355 3927
1544 2355 4095
1544 3159 0
1544 3159 1081
1544 3159 2185
1544 3159 3071
1544 3159 3614
1544 3159 3927
1544 3159 4095
1544 3750 0
1544 3750 1081
1544 3750 2185
1544 3750 3071
1544 3750 3614
1544 3750 3927
1544 3750 4095
1544 4095 0
1544 4095 1081
1544 4095 2185
1544 4095 3071
1544 4095 3614
1544 4095 3927
1544 4095 4095
2561 0 0
2561 0 1081
2561 0 2185
2561 0 3071
2561 0 3614
2561 0 3927
2561 0 4095
2561 671 0
2561 671 1081
2561 671 2185
2561 671 3071
2561 671 3614
2561 671 3927
2561 671 4095
2561 1460 0
2561 1460 1081
2561 1460 2185
2561 1460 3071
2561 1460 3614
2561 1460 3927
2561 1460 4095
2561 2355 0
2561 2355 1081
2561 2355 2185
2561 2355 3071
2561 2355 3614
2561 2355 3927
2561 2355 4095
2561 3159 0
2561 3159 1081
2561 3159 2185
2561 3159 3071
2561 3159 3614
2561 3159 3927
2561 3159 4095
2561 3750 0
2561 3750 1081
2561 3750 2185
2561 3750 3071
2561 3750 3614
2561 3750 3927
2561 3750 4095
2561 4095 0
2561 4095 1081
2561 4095 2185
2561 4095 3071
2561 4095 3614
2561 4095 3927
2561 4095 4095
3552 0 0
3552 0 1081
3552 0 2185
3552 0 3071
3552 0 3614
3552 0 3927
3552 0 4095
3552 671 0
3552 671 1081
3552 671 2185
3552 671 3071
3552 671 3614
3552 671 3927
3552 671 4095
3552 1460 0
3552 1460 1081
3552 1460 2185
3552 1460 3071
3552 1460 3614
3552 1460 3927
3552 1460 4095
3552 2355 0
3552 2355 1081
3552 2355 2185
3552 2355 3071
3552 2355 3614
3552 2355 3927
3552 2355 4095
3552 3159 0
3552 3159 1081
3552 3159 2185
3552 3159 3071
3552 3159 3614
3552 3159 3927
3552 3159 4095
3552 3750 0
3552 3750 1081
3552 3750 2185
3552 3750 3071
3552 3750 3614
3552 3750 3927
3552 3750 4095
3552 4095 0
3552 4095 1081
3552 4095 2185
3552 4095 3071
3552 4095 3614
3552 4095 3927
3552 4095 4095
4018 0 0
4018 0 1081
4018 0 2185
4018 0 3071
4018 0 3614
4018 0 3927
4018 0 4095
4018 671 0
4018 671 1081
4018 671 2185
4018 671 3071
4018 671 3614
4018 671 3927
4018 671 4095
4018 1460 0
4018 1460 1081
4018 1460 2185
4018 1460 3071
4018 1460 3614
4018 1460 3927
4018 1460 4095
4018 2355 0
4018 2355 1081
4018 2355 2185
4018 2355 3071
4018 2355 3614
4018 2355 3927
4018 2355 4095
4018 3159 0
4018 3159 1081
4018 3159 2185
4018 3159 3071
4018 3159 3614
4018 3159 3927
4018 3159 4095
4018 3750 0
4018 3750 1081
4018 3750 2185
4018 3750 3071
4018 3750 3614
4018 3750 3927
4018 3750 4095
4018 4095 0
4018 4095 1081
4018 4095 2185
4018 4095 3071
4018 4095 3614
4018 4095 3927
4018 4095 4095
4095 0 0
4095 0 1081
4095 0 2185
4095 0 3071
4095 0 3614
4095 0 3927
4095 0 4095
4095 671 0
4095 671 1081
4095 671 2185
4095 671 3071
4095 671 3614
4095 671 3927
4095 671 4095
4095 1460 0
4095 1460 1081
4095 1460 2185
4095 1460 3071
4095 1460 3614
4095 1460 3927
4095 1460 4095
4095 2355 0
4095 2355 1081
4095 2355 2185
4095 2355 3071
4095 2355 3614
4095 2355 3927
4095 2355 4095
4095 3159 0
4095 3159 1081
4095 3159 2185
4095 3159 3071
4095 3159 3614
4095 3159 3927
4095 3159 4095
4095 3750 0
4095 3750 1081
4095 3750 2185
4095 3750 3071
4095 3750 3614
4095 3750 3927
4095 3750 4095
4095 4095 0
4095 4095 1081
4095 4095 2185
4095 4095 3071
4095 4095 3614
4095 4095 3927
4095 4095 4095
