other/www.hatom.com/webgl/home/lut/paint_5.3DL
#Created by: Adobe Photoshop Export Color Lookup Plugin
#Description: LutEnd.psd
0 171 341 512 682 853 1023
187 112 165
170 128 370
234 141 896
270 200 1558
236 268 2123
275 309 2478
349 352 2757
239 407 274
238 411 457
250 422 998
254 423 1634
237 431 2161
287 427 2498
331 428 2763
449 867 484
420 869 646
383 876 1147
395 882 1740
411 881 2226
437 866 2551
450 862 2814
742 1612 594
726 1616 760
678 1628 1234
672 1641 1814
703 1651 2303
734 1652 2628
754 1644 2897
1142 2353 675
1141 2362 844
1124 2376 1312
1068 2396 1879
1106 2416 2351
1154 2436 2675
1195 2446 2945
1547 2870 595
1536 2874 785
1533 2897 1254
1536 2928 1829
1463 2946 2317
1508 2967 2638
1544 2987 2918
1831 3262 615
1835 3277 827
1831 3303 1328
1816 3335 1925
1769 3360 2438
1683 3380 2780
1714 3415 3095
407 120 197
406 128 381
438 162 930
443 221 1592
416 274 2131
456 317 2494
520 358 2769
462 416 321
460 419 494
441 423 1029
436 426 1651
417 437 2170
483 430 2507
530 433 2777
584 870 495
573 879 645
567 886 1160
560 881 1752
572 878 2231
583 868 2557
600 872 2827
818 1618 598
811 1625 747
821 1639 1237
837 1655 1826
857 1658 2310
871 1657 2635
884 1645 2902
1159 2356 675
1168 2366 824
1187 2383 1305
1224 2412 1882
1283 2437 2357
1304 2450 2684
1330 2459 2952
1547 2871 595
1538 2875 764
1533 2897 1242
1582 2933 1825
1627 2962 2322
1664 2986 2646
1688 3005 2927
1831 3262 615
1835 3276 804
1831 3303 1314
1817 3335 1918
1814 3368 2443
1840 3406 2812
1854 3429 3112
772 146 282
769 156 467
763 186 993
753 243 1649
778 281 2170
809 323 2516
851 376 2793
805 427 388
802 428 553
791 435 1080
775 440 1703
797 441 2199
828 437 2529
853 451 2798
916 879 511
919 887 664
909 891 1170
884 876 1770
897 878 2252
908 880 2573
932 888 2838
1126 1636 618
1124 1644 757
1126 1665 1238
1156 1684 1850
1160 1667 2326
1165 1660 2652
1171 1649 2916
1488 2393 683
1481 2394 821
1488 2419 1290
1538 2444 1884
1601 2478 2367
1616 2481 2694
1632 2479 2960
1819 2912 591
1815 2911 739
1832 2937 1209
1875 2971 1823
1933 3009 2332
1975 3036 2676
1989 3044 2944
2014 3297 651
2018 3314 806
2028 3340 1314
2055 3378 1953
2093 3420 2490
2112 3452 2867
2128 3485 3184
1359 178 438
1361 185 613
1357 212 1124
1369 245 1725
1398 293 2211
1412 352 2551
1446 399 2821
1410 428 490
1411 423 642
1403 426 1151
1403 443 1748
1416 459 2232
1423 468 2559
1445 472 2825
1489 898 550
1493 898 700
1489 906 1201
1497 904 1802
1492 907 2280
1500 911 2603
1522 919 2874
1706 1681 653
1714 1690 793
1730 1710 1269
1741 1723 1878
1725 1701 2361
1725 1687 2677
1748 1688 2942
2082 2463 694
2084 2471 831
2111 2491 1287
2138 2525 1880
2195 2556 2373
2207 2554 2692
2224 2549 2953
2418 3007 591
2413 3005 741
2426 3030 1223
2439 3062 1837
2493 3118 2397
2532 3145 2755
2538 3150 3037
2572 3400 787
2569 3407 929
2566 3433 1412
2571 3475 2052
2589 3513 2611
2611 3557 3017
2624 3583 3322
2026 193 508
2026 202 679
2029 230 1178
2037 277 1764
2056 329 2253
2084 389 2587
2109 450 2853
2061 442 538
2061 434 683
2061 446 1191
2067 472 1784
2080 484 2269
2098 505 2599
2115 521 2859
2136 938 590
2138 929 734
2148 936 1231
2163 947 1827
2176 951 2314
2187 961 2642
2194 971 2903
2378 1751 687
2381 1754 832
2396 1765 1310
2428 1787 1919
2455 1779 2400
2459 1771 2720
2467 1773 2981
2821 2582 638
2835 2589 779
2864 2615 1245
2929 2661 1834
2971 2688 2355
2976 2685 2685
2979 2678 2952
3102 3162 724
3103 3157 862
3119 3182 1350
3147 3230 1995
3173 3278 2572
3190 3309 2954
3187 3320 3247
3189 3560 1030
3193 3570 1179
3196 3586 1649
3198 3624 2267
3207 3665 2836
3213 3702 3229
3228 3731 3547
2481 235 545
2481 250 713
2485 280 1205
2501 331 1797
2522 384 2281
2544 440 2613
2575 515 2882
2513 483 568
2511 474 716
2511 488 1218
2528 508 1807
2551 531 2293
2563 553 2625
2586 571 2888
2601 979 625
2600 971 762
2601 968 1247
2627 982 1843
2646 1002 2338
2671 1008 2666
2690 1017 2928
2868 1815 714
2871 1811 855
2884 1819 1327
2921 1847 1926
2963 1860 2411
3003 1861 2746
3006 1860 3000
3345 2693 606
3363 2704 748
3384 2726 1254
3429 2769 1885
3473 2810 2418
3498 2824 2766
3509 2816 3036
3559 3286 899
3560 3292 1048
3574 3320 1544
3601 3368 2193
3622 3416 2765
3628 3442 3155
3624 3457 3451
3618 3668 1204
3621 3683 1361
3627 3705 1837
3638 3740 2456
3656 3785 3017
3646 3807 3388
3655 3823 3683
2838 300 570
2841 310 737
2847 338 1232
2869 406 1820
2895 451 2309
2900 507 2633
2895 559 2903
2875 520 594
2872 512 742
2872 529 1235
2897 564 1829
2919 586 2318
2920 600 2641
2906 613 2909
2970 1025 647
2966 1013 786
2976 1006 1260
3004 1027 1863
3030 1054 2356
3036 1070 2689
3036 1074 2948
3287 1893 721
3292 1894 858
3298 1886 1324
3341 1907 1922
3367 1925 2401
3396 1931 2728
3400 1934 2992
3749 2808 664
3759 2820 821
3762 2824 1317
3814 2873 1960
3848 2925 2532
3873 2948 2890
3857 2953 3176
3891 3393 1071
3897 3405 1226
3912 3436 1729
3923 3458 2344
3934 3509 2916
3943 3541 3304
3936 3549 3593
3942 3759 1345
3946 3771 1500
3949 3793 1976
3956 3816 2563
3968 3839 3098
3972 3866 3479
3971 3889 3786
