other/www.hatom.com/webgl/home/lut/paint_3.3DL
#Created by: Adobe Photoshop Export Color Lookup Plugin
#Description: Scene03.psd
0 171 341 512 682 853 1023
310 1373 2632
355 1476 2860
579 1834 3463
799 2126 3788
962 2343 3953
968 2352 4039
1021 2425 4045
335 1469 2595
378 1551 2784
639 1909 3434
861 2207 3777
984 2371 3946
1039 2448 4039
1178 2636 4048
741 2039 2610
775 2084 2776
921 2284 3314
1175 2637 3739
1310 2826 3933
1333 2857 4037
1323 2842 4052
1449 3046 2500
1452 3050 2600
1449 3067 3238
1553 3204 3697
1629 3309 3915
1674 3372 4033
1698 3407 4063
1941 3725 2189
1913 3719 2427
1879 3705 3180
1878 3704 3650
1896 3724 3905
1947 3756 4030
1975 3773 4076
2483 3985 1760
2415 3985 1887
2304 3980 2981
2271 3978 3588
2271 3978 3879
2271 3978 4025
2307 3978 4086
2858 4095 1761
2849 4095 1781
2625 4095 2771
2648 4095 3468
2648 4095 3830
2648 4095 4007
2648 4095 4095
316 1341 2694
348 1434 2871
563 1813 3468
791 2115 3789
956 2335 3953
974 2360 4040
991 2384 4044
335 1461 2626
381 1549 2841
601 1862 3472
808 2138 3791
968 2351 3954
965 2348 4039
1033 2441 4045
742 2040 2610
777 2087 2772
921 2284 3317
1173 2634 3741
1307 2822 3934
1335 2860 4037
1321 2839 4052
1406 2979 2518
1414 2991 2591
1418 3021 3207
1525 3162 3681
1609 3279 3910
1656 3344 4031
1680 3379 4063
1941 3725 2189
1913 3719 2427
1879 3705 3180
1878 3704 3650
1896 3724 3905
1947 3756 4030
1975 3773 4076
2483 3985 1760
2415 3985 1887
2304 3980 2981
2271 3978 3588
2271 3978 3879
2271 3978 4025
2307 3978 4086
2858 4095 1761
2849 4095 1781
2625 4095 2771
2648 4095 3468
2648 4095 3830
2648 4095 4007
2648 4095 4095
1321 884 2624
1312 943 2769
1121 1311 3417
958 1649 3789
1071 1879 3954
1149 2048 4043
1183 2130 4044
1270 1013 2660
1279 985 2751
1076 1361 3433
910 1714 3793
999 1956 3955
1069 2127 4043
1101 2209 4044
1072 2050 2636
1077 2088 2719
951 2296 3446
916 2278 3754
1185 2647 3952
1274 2771 4042
1317 2833 4052
1307 2824 2443
1365 2915 2514
1394 2983 3155
1510 3139 3679
1582 3236 3909
1628 3300 4031
1650 3332 4061
1941 3725 2189
1913 3719 2427
1879 3705 3180
1878 3704 3650
1896 3724 3905
1947 3756 4030
1975 3773 4076
2483 3985 1760
2415 3985 1887
2304 3980 2981
2271 3978 3588
2271 3978 3879
2271 3978 4025
2307 3978 4086
2858 4095 1761
2849 4095 1781
2625 4095 2771
2648 4095 3468
2648 4095 3830
2648 4095 4007
2648 4095 4095
2937 654 2229
2937 654 2384
2934 686 3093
2938 944 3656
2957 1187 3904
2960 1366 4025
2960 1447 4034
2926 718 2226
2932 654 2279
2930 681 3065
2931 957 3658
2931 1210 3907
2916 1395 4026
2910 1478 4034
2852 1754 2324
2849 1658 2391
2756 1466 3247
2676 1661 3742
2563 1891 3941
2478 2078 4038
2329 2042 4042
2217 2723 2073
2462 2892 2186
2569 3035 2952
2223 3006 3716
1866 2983 3939
1772 3025 4038
1726 3054 4056
2970 3742 1840
2926 3745 1949
2641 3754 2716
2575 3760 3536
2546 3746 3915
2460 3699 4033
2438 3689 4072
3035 3985 1755
3000 3985 1828
2660 3988 2541
2667 3990 3432
2667 3990 3842
2661 3985 4027
2647 3963 4085
3064 4095 1761
3057 4095 1774
2739 4095 2552
2790 4095 3388
2790 4095 3804
2790 4095 4000
2790 4095 4095
3497 718 1895
3497 718 2063
3497 717 2881
3496 723 3520
3504 855 3856
3512 1028 4011
3516 1108 4028
3501 819 1882
3498 730 1925
3497 726 2831
3497 728 3508
3504 861 3855
3513 1041 4012
3517 1122 4028
3587 1863 1865
3574 1729 1921
3535 1365 2866
3528 1285 3534
3535 1389 3873
3550 1572 4024
3553 1673 4036
3574 2894 1892
3589 2927 1954
3554 2810 2700
3556 2755 3490
3509 2627 3893
3392 2646 4025
3329 2678 4046
3681 3742 1840
3680 3745 1949
3670 3755 2701
3697 3765 3450
3685 3746 3860
3596 3706 4022
3542 3685 4069
3679 3985 1755
3670 3985 1828
3588 3989 2522
3565 3995 3283
3614 3999 3767
3609 3995 4019
3547 3956 4084
3681 4095 1761
3679 4095 1774
3569 4095 2428
3504 4095 3187
3559 4095 3698
3559 4095 3973
3559 4095 4095
3498 740 1810
3498 740 1978
3498 736 2824
3497 737 3496
3503 836 3843
3510 970 4007
3513 1046 4027
3502 846 1787
3498 751 1829
3498 747 2763
3498 743 3478
3503 839 3838
3510 974 4006
3513 1053 4027
3611 1954 1738
3590 1815 1781
3535 1367 2740
3530 1301 3481
3529 1324 3839
3539 1439 4010
3547 1530 4034
3815 3028 1712
3813 3020 1738
3776 2861 2569
3758 2762 3388
3722 2595 3797
3672 2368 3996
3678 2398 4042
3962 3723 1661
3960 3712 1761
3944 3649 2588
3959 3695 3444
3969 3723 3809
3957 3665 4000
3942 3647 4067
3972 3985 1755
3972 3985 1828
3970 3989 2522
3980 3995 3283
3988 3996 3772
3985 3990 4001
3971 3981 4084
3964 4095 1761
3964 4095 1773
3936 4095 2428
3922 4095 3187
3944 4095 3708
3966 4095 3977
3966 4095 4095
3498 740 1810
3498 740 1979
3498 736 2824
3497 737 3496
3503 836 3843
3510 970 4007
3513 1046 4027
3502 845 1787
3498 751 1829
3498 747 2763
3498 743 3478
3503 839 3838
3510 974 4006
3513 1053 4027
3611 1954 1738
3590 1815 1781
3535 1367 2740
3530 1301 3481
3529 1324 3839
3539 1439 4010
3547 1530 4034
3829 3087 1704
3825 3071 1730
3788 2912 2640
3782 2870 3419
3741 2689 3802
3712 2566 3999
3715 2581 4044
3981 3725 1629
3977 3712 1728
3959 3643 2575
3972 3682 3418
3980 3716 3797
3970 3660 3989
3964 3634 4065
4047 3978 1682
4046 3976 1751
4038 3956 2435
4037 3945 3219
4046 3973 3772
4051 3987 3995
4047 3977 4084
4095 4095 1761
4095 4095 1773
4095 4095 2428
4095 4095 3187
4095 4095 3708
4095 4095 3982
4095 4095 4095
