other/www.hatom.com/webgl/home/lut/scene_1.3DL
#Created by: Adobe Photoshop Export Color Lookup Plugin
#Description: Section1.psd
0 171 341 512 682 853 1023
0 0 126
0 0 671
0 0 1492
0 0 2470
0 0 3210
0 0 3711
0 0 4095
0 608 126
0 608 671
0 608 1492
0 608 2470
0 608 3210
0 608 3711
0 608 4095
0 1539 126
0 1539 671
0 1539 1492
0 1539 2470
0 1539 3210
0 1539 3711
0 1539 4095
0 2644 126
0 2644 671
0 2644 1492
0 2644 2470
0 2644 3210
0 2644 3711
0 2644 4095
0 3461 126
0 3461 671
0 3461 1492
0 3461 2470
0 3461 3210
0 3461 3711
0 3461 4095
0 4006 126
0 4006 671
0 4006 1492
0 4006 2470
0 4006 3210
0 4006 3711
0 4006 4095
0 4095 126
0 4095 671
0 4095 1492
0 4095 2470
0 4095 3210
0 4095 3711
0 4095 4095
606 0 126
606 0 671
606 0 1492
606 0 2470
606 0 3210
606 0 3711
606 0 4095
608 611 112
601 603 675
547 550 1504
536 539 2477
533 536 3213
532 534 3712
531 534 4095
599 1540 100
546 1551 621
546 1551 1502
536 1525 2477
533 1517 3213
532 1513 3712
531 1512 4095
598 2645 100
535 2650 608
535 2650 1474
535 2650 2473
533 2641 3213
532 2636 3712
531 2634 4095
597 3461 99
532 3463 605
532 3463 1467
532 3463 2462
532 3463 3210
532 3460 3712
531 3457 4095
597 4006 99
531 4007 604
531 4007 1465
531 4007 2458
531 4007 3205
531 4007 3710
531 4006 4095
597 4095 99
531 4095 604
531 4095 1464
531 4095 2457
531 4095 3204
531 4095 3709
531 4095 4095
1532 0 126
1532 0 671
1532 0 1492
1532 0 2470
1532 0 3210
1532 0 3711
1532 0 4095
1534 602 101
1541 572 640
1544 551 1502
1518 538 2477
1510 535 3213
1507 534 3712
1505 533 4095
1534 1540 100
1545 1552 610
1535 1543 1486
1447 1454 2491
1415 1422 3222
1401 1409 3716
1394 1401 4095
1530 2645 100
1512 2651 595
1442 2664 1396
1437 2664 2477
1415 2626 3222
1401 2604 3716
1394 2592 4095
1529 3461 99
1503 3463 592
1413 3469 1368
1407 3469 2429
1407 3469 3208
1401 3458 3716
1394 3443 4095
1529 4006 99
1500 4007 590
1401 4007 1357
1395 4007 2410
1395 4007 3186
1395 4007 3704
1394 4004 4095
1529 4095 99
1500 4095 590
1400 4095 1355
1394 4095 2407
1394 4095 3183
1394 4095 3701
1394 4095 4095
2633 0 126
2633 0 671
2633 0 1492
2633 0 2470
2633 0 3210
2633 0 3711
2633 0 4095
2634 600 100
2639 549 618
2639 546 1476
2639 539 2473
2630 535 3213
2625 534 3712
2623 533 4095
2634 1537 100
2639 1523 610
2645 1505 1456
2652 1459 2477
2615 1421 3222
2592 1408 3716
2580 1400 4095
2634 2645 100
2640 2651 595
2652 2664 1396
2643 2655 2454
2581 2593 3225
2541 2553 3720
2516 2528 4095
2632 3461 99
2626 3463 592
2604 3469 1368
2566 3474 2380
2560 3474 3201
2541 3452 3720
2516 3422 4095
2632 4006 99
2621 4007 590
2585 4007 1357
2529 4008 2345
2521 4009 3158
2521 4009 3696
2516 4002 4095
2632 4095 99
2621 4095 590
2582 4095 1355
2524 4095 2340
2516 4095 3151
2516 4095 3690
2516 4095 4095
3448 0 126
3448 0 671
3448 0 1492
3448 0 2470
3448 0 3210
3448 0 3711
3448 0 4095
3448 600 100
3450 541 610
3450 540 1469
3450 538 2462
3450 536 3210
3447 534 3712
3444 533 4095
3448 1536 100
3450 1513 600
3454 1467 1416
3455 1449 2441
3456 1425 3209
3444 1408 3716
3430 1400 4095
3448 2643 100
3450 2638 599
3454 2628 1416
3454 2628 2448
3459 2598 3206
3438 2553 3720
3408 2528 4095
3448 3461 99
3450 3463 592
3456 3469 1368
3460 3474 2380
3455 3468 3194
3434 3448 3716
3409 3422 4095
3447 4006 99
3444 4007 590
3434 4007 1357
3417 4008 2345
3412 4009 3153
3415 4008 3696
3409 4002 4095
3447 4095 99
3443 4095 590
3431 4095 1355
3411 4095 2340
3405 4095 3146
3409 4095 3690
3409 4095 4095
3993 0 126
3993 0 671
3993 0 1492
3993 0 2470
3993 0 3210
3993 0 3711
3993 0 4095
3993 600 100
3993 538 607
3993 538 1466
3993 537 2458
3993 535 3205
3993 534 3710
3992 533 4095
3993 1535 100
3993 1510 596
3994 1446 1395
3994 1434 2424
3994 1422 3190
3994 1411 3705
3990 1400 4095
3993 2643 100
3993 2633 596
3994 2610 1395
3994 2603 2420
3994 2586 3182
3995 2557 3700
3987 2528 4095
3993 3460 99
3993 3457 592
3994 3449 1372
3994 3446 2407
3994 3454 3198
3994 3447 3705
3987 3423 4095
3993 4006 99
3993 4007 590
3993 4007 1357
3994 4008 2345
3994 4009 3153
3993 4008 3700
3991 4005 4095
3992 4095 99
3992 4095 590
3990 4095 1355
3988 4095 2340
3987 4095 3146
3989 4095 3695
3991 4095 4095
4081 0 126
4081 0 671
4081 0 1492
4081 0 2470
4081 0 3210
4081 0 3711
4081 0 4095
4081 600 100
4081 538 607
4081 537 1465
4081 536 2458
4081 535 3204
4081 534 3709
4081 533 4095
4081 1535 100
4081 1509 596
4081 1443 1392
4081 1432 2421
4081 1421 3187
4081 1411 3702
4081 1400 4095
4081 2643 100
4081 2632 596
4081 2607 1392
4081 2598 2415
4081 2583 3179
4081 2557 3695
4080 2528 4095
4081 3460 99
4081 3457 592
4081 3447 1376
4081 3445 2413
4081 3451 3195
4081 3446 3703
4080 3423 4095
4081 4006 99
4081 4006 590
4081 4005 1356
4081 4003 2341
4081 4002 3147
4081 4004 3696
4081 4005 4095
4081 4095 99
4081 4095 590
4081 4095 1355
4080 4095 2340
4080 4095 3146
4081 4095 3695
4081 4095 4095
