other/www.hatom.com/webgl/home/lut/scene_2.3DL
#Created by: Adobe Photoshop Export Color Lookup Plugin
#Description: Section4.psd
0 171 341 512 682 853 1023
0 0 126
0 0 671
0 0 1492
0 0 2470
0 0 3210
0 0 3711
0 0 4095
0 608 126
0 608 671
0 608 1492
0 608 2470
0 608 3210
0 608 3711
0 608 4095
0 1539 126
0 1539 671
0 1539 1492
0 1539 2470
0 1539 3210
0 1539 3711
0 1539 4095
0 2644 126
0 2644 671
0 2644 1492
0 2644 2470
0 2644 3210
0 2644 3711
0 2644 4095
0 3461 126
0 3461 671
0 3461 1492
0 3461 2470
0 3461 3210
0 3461 3711
0 3461 4095
0 4006 126
0 4006 671
0 4006 1492
0 4006 2470
0 4006 3210
0 4006 3711
0 4006 4095
0 4095 126
0 4095 671
0 4095 1492
0 4095 2470
0 4095 3210
0 4095 3711
0 4095 4095
584 12 121
503 56 635
499 51 1451
498 50 2428
498 50 3171
498 50 3675
498 50 4061
608 611 112
601 603 675
547 550 1504
536 539 2477
533 536 3213
532 534 3712
531 534 4095
599 1540 100
546 1551 621
546 1551 1502
536 1525 2477
533 1517 3213
532 1513 3712
531 1512 4095
598 2645 100
535 2650 608
535 2650 1474
535 2650 2473
533 2641 3213
532 2636 3712
531 2634 4095
597 3461 99
532 3463 605
532 3463 1467
532 3463 2462
532 3463 3210
532 3460 3712
531 3457 4095
597 4006 99
531 4007 604
531 4007 1465
531 4007 2458
531 4007 3205
531 4007 3710
531 4006 4095
597 4095 99
531 4095 604
531 4095 1464
531 4095 2457
531 4095 3204
531 4095 3709
531 4095 4095
1472 11 119
1233 56 627
913 118 1398
895 120 2369
894 120 3117
894 120 3625
894 120 4014
1534 602 101
1514 581 637
1173 642 1452
1127 629 2420
1119 624 3160
1116 622 3663
1114 621 4049
1534 1540 100
1545 1552 610
1535 1543 1486
1447 1454 2491
1415 1422 3222
1401 1409 3716
1394 1401 4095
1530 2645 100
1512 2651 595
1442 2664 1396
1437 2664 2477
1415 2626 3222
1401 2604 3716
1394 2592 4095
1529 3461 99
1503 3463 592
1413 3469 1368
1407 3469 2429
1407 3469 3208
1401 3458 3716
1394 3443 4095
1529 4006 99
1500 4007 590
1401 4007 1357
1395 4007 2410
1395 4007 3186
1395 4007 3704
1394 4004 4095
1529 4095 99
1500 4095 590
1400 4095 1355
1394 4095 2407
1394 4095 3183
1394 4095 3701
1394 4095 4095
2571 11 119
2315 56 625
1952 118 1394
1559 195 2315
1491 208 3059
1490 208 3570
1489 208 3963
2634 600 100
2611 556 613
2262 640 1423
1849 715 2368
1762 723 3103
1755 720 3609
1752 719 3998
2634 1537 100
2639 1523 610
2645 1505 1456
2275 1562 2438
2145 1541 3166
2121 1525 3664
2108 1515 4045
2634 2645 100
2640 2651 595
2652 2664 1396
2643 2655 2454
2581 2593 3225
2541 2553 3720
2516 2528 4095
2632 3461 99
2626 3463 592
2604 3469 1368
2566 3474 2380
2560 3474 3201
2541 3452 3720
2516 3422 4095
2632 4006 99
2621 4007 590
2585 4007 1357
2529 4008 2345
2521 4009 3158
2521 4009 3696
2516 4002 4095
2632 4095 99
2621 4095 590
2582 4095 1355
2524 4095 2340
2516 4095 3151
2516 4095 3690
2516 4095 4095
3392 11 119
3160 56 625
2831 117 1392
2456 195 2314
2136 259 3026
2023 281 3526
2022 280 3921
3448 600 100
3425 548 605
3109 630 1410
2749 717 2356
2428 780 3071
2308 801 3566
2302 799 3956
3448 1536 100
3450 1513 600
3454 1467 1416
3130 1563 2395
2824 1611 3134
2685 1622 3621
2668 1610 4004
3448 2643 100
3450 2638 599
3454 2628 1416
3454 2628 2448
3247 2669 3186
3102 2657 3678
3073 2630 4056
3448 3461 99
3450 3463 592
3456 3469 1368
3460 3474 2380
3455 3468 3194
3434 3448 3716
3409 3422 4095
3447 4006 99
3444 4007 590
3434 4007 1357
3417 4008 2345
3412 4009 3153
3415 4008 3696
3409 4002 4095
3447 4095 99
3443 4095 590
3431 4095 1355
3411 4095 2340
3405 4095 3146
3409 4095 3690
3409 4095 4095
3941 11 119
3728 56 625
3425 117 1392
3077 195 2312
2784 259 3026
2558 306 3510
2419 335 3890
3993 600 100
3970 544 602
3679 625 1405
3345 714 2345
3065 780 3071
2835 830 3550
2694 859 3926
3993 1535 100
3993 1510 596
3994 1446 1395
3694 1546 2374
3431 1617 3115
3206 1656 3606
3055 1682 3974
3993 2643 100
3993 2633 596
3994 2610 1395
3994 2603 2420
3801 2664 3158
3609 2694 3663
3450 2707 4026
3993 3460 99
3993 3457 592
3994 3449 1372
3994 3446 2407
3994 3454 3198
3900 3479 3693
3771 3491 4066
3993 4006 99
3993 4007 590
3993 4007 1357
3994 4008 2345
3994 4009 3153
3993 4008 3700
3991 4005 4095
3992 4095 99
3992 4095 590
3990 4095 1355
3988 4095 2340
3987 4095 3146
3989 4095 3695
3991 4095 4095
4031 11 119
3821 56 625
3521 117 1391
3179 195 2312
2890 259 3026
2667 306 3510
2486 344 3884
4081 600 100
4059 544 602
3772 625 1404
3443 713 2343
3167 781 3068
2942 830 3550
2759 870 3920
4081 1535 100
4081 1509 596
4081 1443 1392
3786 1543 2371
3526 1617 3111
3311 1656 3606
3119 1695 3969
4081 2643 100
4081 2632 596
4081 2607 1392
4081 2598 2415
3891 2661 3155
3706 2695 3659
3513 2720 4021
4081 3460 99
4081 3457 592
4081 3447 1376
4081 3445 2413
4081 3451 3195
3989 3478 3691
3830 3503 4061
4081 4006 99
4081 4006 590
4081 4005 1356
4081 4003 2341
4081 4002 3147
4081 4004 3696
4051 4007 4091
4081 4095 99
4081 4095 590
4081 4095 1355
4080 4095 2340
4080 4095 3146
4081 4095 3695
4081 4095 4095
